X:106
T:Earl of Vincents Fancy. JJo.106
S:J.Jones MS,1801,N.Shrops.
N:B part written in MS with [1 and [2 repeats for last 2 bars.
N:My format for the tune is effectively identical. NeilB.
A:N Shropshire
Z:Neil Brookes
M:4/4
L:1/8
Q:1/4=140
K:C
g>age d>ecG|A>GAc d/d/d de|g>age d>ecG|A>cGE C/C/CC2:|!
c’>d’c’g c’>d’c’g|agac’ d’/d’/d’d’2|c’d’c’g ac’dc’|dcde c/c/cc2|!
c’>d’c’g c’>d’c’g|agac’ d’/d’/d’d’2|c’gac’ gaeg|dcde c/c/cc2|]

